signal-variant.svg

<svg fill="currentColor" viewBox="0 0 24 24"><path d="M4 6V4h.1C12.9 4 20 11.1 20 19.9v.1h-2v-.1C18 12.2 11.8 6 4 6m0 4V8a12 12 0 0 1 12 12h-2A10 10 0 0 0 4 10m0 4v-2a8 8 0 0 1 8 8h-2a6 6 0 0 0-6-6m0 2a4 4 0 0 1 4 4H4z"/></svg>

<svg  viewBox="0 0 24 24" fill="currentColor"><path  d="M4,6V4H4.1C12.9,4 20,11.1 20,19.9V20H18V19.9C18,12.2 11.8,6 4,6M4,10V8A12,12 0 0,1 16,20H14A10,10 0 0,0 4,10M4,14V12A8,8 0 0,1 12,20H10A6,6 0 0,0 4,14M4,16A4,4 0 0,1 8,20H4V16Z"/></svg>
